Delta/apps/scalable/gnome-maps.svg

<svg xmlns="http://www.w3.org/2000/svg" width="192" height="192" viewBox="0 0 192 192">
  <g fill="none" fill-rule="evenodd">
    <rect width="152" height="152" x="20" y="20" fill="#FCECDC" rx="10"/>
    <path fill="#98DC9A" d="M20,29.9975816 C20,24.4760698 24.4707686,20 29.9980936,20 L127.71542,20 C133.237214,20 137.713513,24.473 137.713513,29.9975816 L137.713513,50.7111889 C137.713513,56.2327008 133.242745,60.7087705 127.71542,60.7087705 L29.9980936,60.7087705 C24.476299,60.7087705 20,56.2357705 20,50.7111889 L20,29.9975816 Z"/>
    <path fill="#FFD6D4" d="M91.7135133,29.9975816 C91.7135133,24.4760698 96.1876495,20 101.719519,20 L161.993994,20 C167.520159,20 172,24.473 172,29.9975816 L172,50.7111889 C172,56.2327008 167.525864,60.7087705 161.993994,60.7087705 L101.719519,60.7087705 C96.1933547,60.7087705 91.7135133,56.2357705 91.7135133,50.7111889 L91.7135133,29.9975816 Z"/>
    <path stroke="#F9DE81" stroke-width="21" d="M172.529339,148.966168 L97.5306116,148.966168 C79.9456001,148.966168 65.6901317,134.7107 65.6901317,117.125689 C65.6901317,99.5406771 51.4346634,85.2852087 33.8496519,85.2852087 L20.1022131,85.2852087 L20.1022131,85.2852087"/>
    <path fill="#FFF" d="M109.463714,120.01236 L109.463714,172 L109.463714,172 L90,172 L90,73.4637143 C90,69.0454363 86.418278,65.4637143 82,65.4637143 L20,65.4637143 L20,65.4637143 L20,46 L82,46 C86.418278,46 90,42.418278 90,38 L90,20 L90,20 L109.463714,20 L109.463714,38 C109.463714,42.418278 113.045436,46 117.463714,46 L172,46 L172,46 L172,65.4637143 L117.463714,65.4637143 C113.045436,65.4637143 109.463714,69.0454363 109.463714,73.4637143 L109.463714,84.4947927 C109.463714,88.6592181 112.658537,92.1271392 116.808993,92.4679565 L172,97 L172,97 L172,116.463714 L118.118436,112.039196 C113.714979,111.677604 109.852143,114.954182 109.490551,119.357639 C109.472667,119.575421 109.463714,119.793845 109.463714,120.01236 Z"/>
    <path fill="#9ABEFF" d="M106.463714,64 L106.463714,96 L106.463714,96 L93,96 L93,71.4637143 C93,66.4931516 88.9705627,62.4637143 84,62.4637143 L20,62.4637143 L20,62.4637143 L20,49 L91.4637143,49 C99.7479856,49 106.463714,55.7157288 106.463714,64 Z"/>
    <path fill="#9ABEFF" stroke="#FCECDC" stroke-width="3" d="M100,118.5 C89.7827321,118.5 81.5,110.217268 81.5,100 C81.5,89.7827321 89.7827321,81.5 100,81.5 C110.217268,81.5 118.5,89.7827321 118.5,100 C118.5,110.217268 110.217268,118.5 100,118.5 Z"/>
    <path fill="#FFF" d="M93,109 L100,91 L107,109 L100,104 L93,109 Z"/>
  </g>
</svg>

<svg width="192" height="192" version="1.1" viewBox="0 0 192 192" xmlns="http://www.w3.org/2000/svg">
 <rect x="20" y="20" width="152" height="152" rx="10" style="fill-rule:evenodd;fill:#fcecdc"/>
 <path d="m20 29.998c0-5.5215 4.4708-9.9976 9.9981-9.9976h97.717c5.5218 0 9.9981 4.473 9.9981 9.9976v20.714c0 5.5215-4.4708 9.9976-9.9981 9.9976h-97.717c-5.5218 0-9.9981-4.473-9.9981-9.9976z" style="fill-rule:evenodd;fill:#98dc9a"/>
 <path d="m91.714 29.998c0-5.5215 4.4741-9.9976 10.006-9.9976h60.274c5.5262 0 10.006 4.473 10.006 9.9976v20.714c0 5.5215-4.4741 9.9976-10.006 9.9976h-60.274c-5.5262 0-10.006-4.473-10.006-9.9976z" style="fill-rule:evenodd;fill:#ffd6d4"/>
 <path d="m172.53 148.97h-74.999c-17.585 0-31.84-14.255-31.84-31.84 0-17.585-14.255-31.84-31.84-31.84h-13.747" style="fill:none;stroke-width:21;stroke:#f9de81"/>
 <path d="m109.46 120.01v51.988h-19.464v-98.536c0-4.4183-3.5817-8-8-8h-62v-19.464h62c4.4183 0 8-3.5817 8-8v-18h19.464v18c0 4.4183 3.5817 8 8 8h54.536v19.464h-54.536c-4.4183 0-8 3.5817-8 8v11.031c0 4.1644 3.1948 7.6323 7.3453 7.9732l55.191 4.532v19.464l-53.882-4.4245c-4.4035-0.3616-8.2663 2.915-8.6279 7.3184-0.0179 0.21778-0.0268 0.43621-0.0268 0.65472z" style="fill-rule:evenodd;fill:#fff"/>
 <path d="m106.46 64v32h-13.464v-24.536c0-4.9706-4.0294-9-9-9h-64v-13.464h71.464c8.2843 0 15 6.7157 15 15z" style="fill-rule:evenodd;fill:#9abeff"/>
 <circle cx="100" cy="100" r="20" style="fill:#fcecdc;paint-order:stroke fill markers;stroke-width:1.4127"/>
 <path d="m100 83c-9.4066 0-17 7.5934-17 17 0 9.4066 7.5934 17 17 17 9.4066 0 17-7.5934 17-17 0-9.4066-7.5934-17-17-17z" style="fill-rule:evenodd;fill:#9abeff"/>
 <path d="m93 109 7-18 7 18-7-5z" style="fill-rule:evenodd;fill:#fff"/>
</svg>
